hosted/assets/icon/widgets/dark-mode/select.svg

<svg width="50" height="50" viewBox="0 0 50 50" fill="none" xmlns="http://www.w3.org/2000/svg">
<rect x="29" y="16" width="20" height="19" fill="#78768B"/>
<path d="M2 14C0.906937 14 0 14.9069 0 16V34C0 35.0931 0.906937 36 2 36H48C49.0931 36 50 35.0931 50 34V16C50 14.9069 49.0931 14 48 14H2ZM2 16H28V34H2V16ZM30 16H48V34H30V16ZM33 23L39 29L45 23H33Z" fill="white"/>
</svg>

<svg width="50" height="50" fill="none" xmlns="http://www.w3.org/2000/svg"><path fill="#78768B" d="M29 16h20v19H29z"/><path d="M2 14c-1.093 0-2 .907-2 2v18c0 1.093.907 2 2 2h46c1.093 0 2-.907 2-2V16c0-1.093-.907-2-2-2H2zm0 2h26v18H2V16zm28 0h18v18H30V16zm3 7l6 6 6-6H33z" fill="#fff"/></svg>
